X: 02077
T: McCARTHY'S IRISH MARCH
C: Bob McQuillen Nov'74
B: Bob's Note Book 1&2 #77
R: march
Z: 2019 John Chambers <jc:trillian.mit.edu>
M: C
L: 1/8
K: Em
E>F \
| G>AG>F E>FG>A | B2B>A G>EF>G | F2D>E D>EF>G | A>BA>G F>DE>F |
| G>AG>F E>FG>A | B2e2 e>AB>c | B>AG>E D>EF>D | E2E>E E2 :|
|: G>A \
| B>cB>A G>EG>A | B2E2 E2F>G | A>BA>G F>EF>G | A2D2 D2G>A |
| B>cB>A G>EG>A | B2e2 e2e>f | g>f (3(gfe) d>ef>d | e2e>e e2 :|
%%begintext align
%% To my friend,
%% The Coon Hunter
%%endtext

%%sep 1 1 500

%%sep 1 1 500

